X:119
T:Darlin' Nelly Gray
C:Transcribed by Russ Deuth
N: I Got This FromA Carroll Co . Ramblers Album. There Is A Monroe Style Mando Break On This Tune , But This Is More Like Chris Warner's Banjo Renderin
R:bluegrass
L:1/8
Q:1/4=240
M:4/4
K:D
"Darlin' Nelly Gr"z2 A,2 A,B, D2 | =F^F A2 AF AF | A2 AB AF DF | GF GA B2 d2 | 
cd dd d2 B2 | AF DF AF DF | AB AF DE F=F | F2 E2 [EC][EC] [EC][EC] | [E2C2] A,2 A,B, D2 | 
=F^F A2 AF AF | AB AF DE F2 | GF GA B2 d2 | cd dd d2 B2 | AB AF DE F=F | FE DF ED C2 | 
CD DD DD D2 | D2 AB =cB A2 | FG G2 GF GA | Bd2B d2 B2 | AB AF DE F2 | ^GA AA A2 AA | 
AF DF AF DF | AB AF DE F^D | E2 C2 [EC][EC] [E2C2] | [E2C2] A,2 A,B, D2 | =F^F A2 AF AF | 
A2 AB AF ED | GF GA B2 d2 | cd dd d2 B2 | AB AF DE F=F | FE DF ED CC | [D2D2] [DD][DD] [DD][DD] [D2D2] | 
[D2D2] A2 AB d=f | f2 a2 af af | a2 ab af ed | g2 gf g2 g2 | b[d'b] [d'b][d'b] [d'2b2] b2 | 
a2 ab af de | f2 ab af de | f2 e[ec] [ec][ec] [ec][ec] | [e2c2] A2 AB d=f | f2 a2 af af | 
a2 ab af ed | fg gf g2 gg | b2 [d'b][d'b] [d'2b2] b2 | a2 ab af d2 | de ef ed c2 | 
cd d[dD] [dD][dD] [dD][dD] | [d2D2] =f^f ab af | g2 g2 gf g2 | ab2d' d'2 b2 | 
af de fa2^g | aa aa a2 aa | af df af df | ab af de f=f | f2 e3[ec] [ec][ec] | 
[e2c2] A2 AB d=f | f2 a2 af af | ab af de f2 | gf ga b2 d'2 | c'd' d'd' d'2 b2 | 
a2 ab af df | e2 ef ed c2 | cd z[dD] z=F ^FA | [d8D8] | 


